!!!SOCIAL_FUNCTION:	songs of the sun dance
!!!PDT:	1922
!!!OTL: No_21_Sun_Dance_Song_(d).krn
!!!REG: Southwest
!!!LANG: Non-Tone
!!!LING_GROUP: Uto-Aztecan
**kern	**kern
*staff2	*staff1
=1-	=1-
*clefF4	*clefF4
*k[b-e-a-d-g-]	*k[b-e-a-d-g-]
*M3/4	*M3/4
8GG-/L	8.f\L
8GG-/J	.
.	16e-\Jk
8GG-/L	4d-\
8GG-/J	.
8GG-/L	4B-\
8GG-/J	.
=2	=2
2.r	16f\LK
.	8f\
.	16e-\Jk
.	4f\
.	4f\
=3	=3
2.r	16f\LK
.	8f\
.	16e-\Jk
.	4d-\
.	4B-\
=4	=4
2.r	16f\LK
.	8f\
.	16e-\Jk
.	8.d-\L
.	16d-\Jk
.	4d-\
=5||	=5||
*M2/4	*M2/4
2r	16B-\LK
.	8.B-\J
.	8.F\L
.	16F\Jk
=6	=6
2r	2F\
=7	=7
2r	16B-\LK
.	8.B-\J
.	4F\
=8||	=8||
*M3/4	*M3/4
2.r	16B-\LK
.	8.B-\J
.	2B-\
=9||	=9||
*M2/4	*M2/4
2r	16B-\LK
.	8.B-\J
.	8.F\L
.	16F\Jk
=10	=10
2r	2F\
=11	=11
2r	16B-\LK
.	8.B-\J
.	8.F\L
.	16F\Jk
=12	=12
2r	4.F\
.	8F\
=13||	=13||
*M3/4	*M3/4
2.r	8G-\L
.	8F\J
.	2F\
=14||	=14||
*M2/4	*M2/4
2r	16d-\LK
.	8.d-\J
.	4B-\
=15||	=15||
*M3/4	*M3/4
2.r	16f\LK
.	8f\
.	16e-\Jk
.	8.d-\L
.	16d-\Jk
.	4d-\
=16||	=16||
*M2/4	*M2/4
2r	16B-\LK
.	8.B-\J
.	8.F\L
.	16F\Jk
=17	=17
2r	2F\
=18	=18
2r	16B-\LK
.	8.B-\J
.	4F\
=19||	=19||
*M3/4	*M3/4
2.r	16B-\LK
.	8.B-\J
.	2B-\
=20||	=20||
*M2/4	*M2/4
2r	16B-\LK
.	8.B-\J
.	8.F\L
.	16F\Jk
=21	=21
2r	2F\
=22	=22
2r	16B-\LK
.	8.B-\J
.	8.F\L
.	16F\Jk
=23	=23
2r	8G-\L
.	8F\J
.	4F\
==	==
*-	*-
